X:007 
T:Badger's Fancy* (hornpipe), The 
S:Grier MS
B:CRE4.218 (gan ainm)
F:file ID: cre.4/007badg_f
N:No repeats in source.
L:1/8
%Q:150
M:4/4
R:hornpipe
K:G
D|GABc dgge|feed e2AG|FGAB cedc|BGAF GFED|
GABc dgge|feed e2 AG|FGAB cedc|BGAF G3 :|
e|d2 Bd gdBd|gfgf gdBd|gfed cBAG|Ad^ce d2 ef|
gdBd GBdg|ecAF GFED|GBdg ecAF|G2 GF G3 :|

%%%

